X: 12
T: Missa Caput / Agnus Dei
N: Derived from Ock1003e-Missa_Caput-Agnus.krn
C: Johannes Ockeghem
%%abc-version 2.0
%%abcx-abcm2ps-target-version 5.9.1 (29 Sep 2008)
%%abc-creator hum2abc beta
%%abcx-conversion-date 2019/02/17 07:26:13
%%abc-edited-by Jesse Rodin
%%abc-edited-by Will Watson 14/03/2012
%%abcx-initial-encoding-date 2012/03/14/
%%humdrum-veritas 1175364968
%%humdrum-veritas-data 1071695010
%%linebreak <none>
%%barnumbers 0
L: 1/4
M: 3/1
Q: 1/2=120
%%staves [1 2 3 4]
V: 1 clef=treble
V: 2 clef=treble-8
V: 3 clef=treble-8
V: 4 clef=bass
K: C
[V:1] A12 | 
[V:2] A12 | 
[V:3] z12 | 
[V:4] z12 | 
[V:1] G4F6E2 | 
[V:2] c4d6c2 | 
[V:3] z12 | 
[V:4] z12 | 
[V:1] E2C2D2F2E4 | 
[V:2] e4f2d4^c2 | 
[V:3] z12 | 
[V:4] z12 | 
[V:1] z2B2A2d2c2A2- | 
[V:2] d8A2c2 | 
[V:3] z12 | 
[V:4] z12 | 
[V:1] A2G2A2GAG2E2 | 
[V:2] B4A4c4 | 
[V:3] z12 | 
[V:4] z12 | 
[V:1] D2F2E2C2D4 | 
[V:2] G2A2c2c4B2 | 
[V:3] z12 | 
[V:4] z12 | 
[V:1] C12 | 
[V:2] c12 | 
[V:3] z12 | 
[V:4] z12 | 
[V:1] C8B,2C2- | 
[V:2] c4e4d2e2 | 
[V:3] z12 | 
[V:4] z12 | 
[V:1] C2E2D2C2F3G | 
[V:2] c4B2c2d4 | 
[V:3] z12 | 
[V:4] z12 | 
[V:1] A_BA4G2A4 | 
[V:2] A4B4A4 | 
[V:3] z12 | 
[V:4] z12 | 
[V:1] G2B2c2d3cA2 | 
[V:2] e6d2f4 | 
[V:3] z12 | 
[V:4] z12 | 
[V:1] G2c4B4A2 | 
[V:2] e6d2c4 | 
[V:3] z12 | 
[V:4] z12 | 
[V:1] B6G2G4 | 
[V:2] B2G6B2c2 | 
[V:3] E12 | 
[V:4] z12 | 
[V:1] z4z4B4- | 
[V:2] d12 | 
[V:3] D8G3A | 
[V:4] B,,12- | 
[V:1] B2d4c2B3A | 
[V:2] z12 | 
[V:3] B2G4D2E2G2 | 
[V:4] B,,12 | 
[V:1] A6F4D2 | 
[V:2] d12 | 
[V:3] F6D2F3G | 
[V:4] D,12- | 
[V:1] F3GA4D4 | 
[V:2] D4F3GA2B2 | 
[V:3] A4D4z4 | 
[V:4] D,12 | 
[V:1] z12 | 
[V:2] c2A4GFE2F2 | 
[V:3] A,12- | 
[V:4] C,12- | 
[V:1] z12 | 
[V:2] E2A4F2E4 | 
[V:3] A,12 | 
[V:4] C,12 | 
[V:1] F6A4GF | 
[V:2] D12 | 
[V:3] A8d4 | 
[V:4] D,12 | 
[V:1] E4D8 | 
[V:2] E4G4D4 | 
[V:3] c4B6G2 | 
[V:4] z4z4B,,4 | 
[V:1] G2A2B6G2 | 
[V:2] z12 | 
[V:3] G8B4 | 
[V:4] E,12 | 
[V:1] G2FED2G4F2 | 
[V:2] B6c2d4 | 
[V:3] G2d4B2A4 | 
[V:4] G,8D,4 | 
[V:1] G3FD4z4 | 
[V:2] B8A4 | 
[V:3] G6F2D4 | 
[V:4] E,4B,,4D,4 | 
[V:1] A8F4 | 
[V:2] d8B4 | 
[V:3] z4F8 | 
[V:4] D,12 | 
[V:1] G4A3GE4 | 
[V:2] c12- | 
[V:3] E8A4- | 
[V:4] C,4A,,8 | 
[V:1] F4D2E2G3F | 
[V:2] c4B8 | 
[V:3] A2F2G3FD4 | 
[V:4] z4z4B,,4 | 
[V:1] D4F3GA2_B2 | 
[V:2] A4D4F3G | 
[V:3] F3GA2_B2A2d2 | 
[V:4] D,12- | 
[V:1] A2d2z2D2E2G2 | 
[V:2] A2_B2A2d2z4 | 
[V:3] z2D2F3GE4 | 
[V:4] D,8C,4 | 
[V:1] F6D2D4 | 
[V:2] A8F4 | 
[V:3] D8A4 | 
[V:4] D,12- | 
[V:1] z4F6G2 | 
[V:2] D4A4B4 | 
[V:3] B4d8 | 
[V:4] D,8B,,4 | 
[V:1] A2B2c2A2G2c2- | 
[V:2] z2G2A4E4- | 
[V:3] d4c4B2e2- | 
[V:4] z4z4E,4 | 
[V:1] c2B3GF2A4- | 
[V:2] E4e4d4- | 
[V:3] e2d2B4A4- | 
[V:4] G,8D,4- | 
[V:1] A2F2G3ED4 | 
[V:2] d4B3cd4- | 
[V:3] A4G4B4 | 
[V:4] D,4E,4B,,4 | 
[V:1] z4D8 | 
[V:2] d4z4B4 | 
[V:3] A8F4 | 
[V:4] D,8D,4 | 
[V:1] E4C3DE2F2- | 
[V:2] c12 | 
[V:3] E8A4 | 
[V:4] C,4A,,8 | 
[V:1] F2D4C2D4 | 
[V:2] A2A4G2B4 | 
[V:3] D2F2E4D4 | 
[V:4] z4z4B,,4 | 
[V:1] F3GA2GA_B2A2- | 
[V:2] A4d6c2 | 
[V:3] z4F8 | 
[V:4] D,12- | 
[V:1] A2F2E4z4 | 
[V:2] d2A4GFE4 | 
[V:3] D4A,8 | 
[V:4] D,4C,8 | 
[V:1] F6D2D3C | 
[V:2] D4A6^F2- | 
[V:3] A4F6D2 | 
[V:4] D,12- | 
[V:1] D2B,4G,2G,2F,G, | 
[V:2] F2E^FG3=FD4 | 
[V:3] D6B,2D4 | 
[V:4] D,4B,,8 | 
[V:1] A,12 ||  
[V:2] E12 ||  
[V:3] C12 ||  
[V:4] A,,12 ||  
[V:1]  [K:C] [M:3/1]^C6D2E3F | 
[V:2]  [K:C] [M:3/1]A12 | 
[V:3]  [K:C] [M:3/1]z12 | 
[V:4]  [K:C] [M:3/1]z12 | 
[V:1] E4D4F3G | 
[V:2] c4d8 | 
[V:3] z12 | 
[V:4] z12 | 
[V:1] A2B2c2d4G2 | 
[V:2] d4e2d2G2c2- | 
[V:3] z12 | 
[V:4] z12 | 
[V:1] A2B4A4^G2 | 
[V:2] c2B2G2A2B4 | 
[V:3] z12 | 
[V:4] z12 | 
[V:1] A12 | 
[V:2] A12 | 
[V:3] z4z4d4 | 
[V:4] z4z4D,4 | 
[V:1] z12 | 
[V:2] z12 | 
[V:3] d6cBA2B2- | 
[V:4] D,12 | 
[V:1] z12 | 
[V:2] z12 | 
[V:3] B2c4B2A2d2- | 
[V:4] E,4F,8 | 
[V:1] z12 | 
[V:2] z12 | 
[V:3] d2e2d2B2A2d2- | 
[V:4] G,8D,4 | 
[V:1] z12 | 
[V:2] z12 | 
[V:3] dBc2F3GA4 | 
[V:4] E,4F,8 | 
[V:1] z12 | 
[V:2] z4z4A4 | 
[V:3] G8z4 | 
[V:4] G,8D,4 | 
[V:1] z12 | 
[V:2] B4c2d3cA2 | 
[V:3] z12 | 
[V:4] G,8D,4 | 
[V:1] z12 | 
[V:2] G2c4d2e4 | 
[V:3] z12 | 
[V:4] E,4C,8 | 
[V:1] z12 | 
[V:2] d3cA2B4c2- | 
[V:3] z12 | 
[V:4] D,8E,4 | 
[V:1] z4z4A4 | 
[V:2] cBG4^F2^F2E2 | 
[V:3] z4z4C4 | 
[V:4] B,,4A,,8 | 
[V:1] B6G2G4 | 
[V:2] G8z4 | 
[V:3] D8E3F | 
[V:4] G,,12- | 
[V:1] B4d6c2 | 
[V:2] G8B4 | 
[V:3] E4D4G4 | 
[V:4] G,,12 | 
[V:1] c8A4 | 
[V:2] c4A4z4 | 
[V:3] A4F6E2 | 
[V:4] z4z4A,,4 | 
[V:1] A4G2G4E2 | 
[V:2] c6d2e4 | 
[V:3] E8G4- | 
[V:4] C,12 | 
[V:1] E4D4z4 | 
[V:2] c4B2B4AB | 
[V:3] G4F8 | 
[V:4] C,4D,8 | 
[V:1] E3FG2A4G2- | 
[V:2] c3de6dc | 
[V:3] G4z4E3F | 
[V:4] C,12 | 
[V:1] G2E2D2F2E2DC | 
[V:2] B2c2d2d4c2 | 
[V:3] G2C2z2D2A4 | 
[V:4] z12 | 
[V:1] B,2D3CD2A,2B,2 | 
[V:2] d4z4d4 | 
[V:3] D4z4F4 | 
[V:4] D,12 | 
[V:1] C4z4G4 | 
[V:2] e4c3de4 | 
[V:3] G2A4B2c4 | 
[V:4] C,12 | 
[V:1] _B2A4GAF3E | 
[V:2] f4d4z4 | 
[V:3] F8D4 | 
[V:4] D,12 | 
[V:1] E6DCB,4 | 
[V:2] z12 | 
[V:3] C4G6A2 | 
[V:4] E,12 | 
[V:1] z4B8 | 
[V:2] d12- | 
[V:3] B4G4z4 | 
[V:4] B,,8G,,4- | 
[V:1] B4c6B2 | 
[V:2] d4c8 | 
[V:3] B4A3GE4 | 
[V:4] G,,4A,,8 | 
[V:1] AGG2A2^F4E2 | 
[V:2] B4z4A4 | 
[V:3] D4C4z4 | 
[V:4] B,,4A,,8 | 
[V:1] G6E2D4- | 
[V:2] B12- | 
[V:3] D4G6FE | 
[V:4] G,,12 | 
[V:1] D4z4d4- | 
[V:2] B4G8 | 
[V:3] D6C2D4 | 
[V:4] B,,6A,,2B,,4 | 
[V:1] d4c6A2 | 
[V:2] B4c8 | 
[V:3] E2G4^F2^F2E^F | 
[V:4] G,,4A,,8 | 
[V:1] B12 ||  
[V:2] d12 ||  
[V:3] G12 ||  
[V:4] G,,12 ||  
[V:1]  [K:C] [M:2/1]B8 | 
[V:2]  [K:C] [M:2/1]g8 | 
[V:3]  [K:C] [M:2/1]z8 | 
[V:4]  [K:C] [M:2/1]z8 | 
[V:1] A4G4 | 
[V:2] f4g4 | 
[V:3] z8 | 
[V:4] z8 | 
[V:1] B4c4 | 
[V:2] e8 | 
[V:3] z8 | 
[V:4] z8 | 
[V:1] d4B4- | 
[V:2] d8- | 
[V:3] z8 | 
[V:4] z8 | 
[V:1] B2A2A4 | 
[V:2] d8 | 
[V:3] z8 | 
[V:4] z8 | 
[V:1] z2A4F2 | 
[V:2] c4d4 | 
[V:3] z8 | 
[V:4] z8 | 
[V:1] G2A2c4 | 
[V:2] e2c3Bc2 | 
[V:3] z8 | 
[V:4] z8 | 
[V:1] B2A4^G2 | 
[V:2] d2A2B4 | 
[V:3] z8 | 
[V:4] z8 | 
[V:1] A4z4 | 
[V:2] A8 | 
[V:3] z8 | 
[V:4] z8 | 
[V:1] D4E4 | 
[V:2] z4G4- | 
[V:3] z8 | 
[V:4] z8 | 
[V:1] G6FG | 
[V:2] G4A4- | 
[V:3] z8 | 
[V:4] z8 | 
[V:1] F4E4 | 
[V:2] A4c4- | 
[V:3] z8 | 
[V:4] z8 | 
[V:1] A6G2 | 
[V:2] c2d2e4- | 
[V:3] z8 | 
[V:4] z8 | 
[V:1] G6F2 | 
[V:2] e2d2d4- | 
[V:3] z8 | 
[V:4] z8 | 
[V:1] D4E4 | 
[V:2] d4c4 | 
[V:3] z8 | 
[V:4] z8 | 
[V:1] D2F2G2A2- | 
[V:2] d4e2f2 | 
[V:3] z8 | 
[V:4] z8 | 
[V:1] A2B2A2d2 | 
[V:2] d4z2d2 | 
[V:3] z8 | 
[V:4] z8 | 
[V:1] c2B4A2 | 
[V:2] e2B2c4 | 
[V:3] z8 | 
[V:4] z8 | 
[V:1] B8 | 
[V:2] B8- | 
[V:3] z8 | 
[V:4] z8 | 
[V:1] z4B4 | 
[V:2] B4d4- | 
[V:3] B8- | 
[V:4] B,,8- | 
[V:1] d6c2 | 
[V:2] d4D4 | 
[V:3] B4d4- | 
[V:4] B,,8 | 
[V:1] B3AA4 | 
[V:2] F6G2 | 
[V:3] d4A4 | 
[V:4] D,8- | 
[V:1] z2D2F2G2 | 
[V:2] A4F4 | 
[V:3] z4B4 | 
[V:4] D,8 | 
[V:1] A3FE4 | 
[V:2] E4G4 | 
[V:3] c8 | 
[V:4] C,8 | 
[V:1] D3CA,4 | 
[V:2] F8 | 
[V:3] A4d4- | 
[V:4] D,8 | 
[V:1] z4D4 | 
[V:2] D8 | 
[V:3] d8 | 
[V:4] B,,8 | 
[V:1] E4G4- | 
[V:2] G8 | 
[V:3] B4G4 | 
[V:4] z4E,4 | 
[V:1] G4D4- | 
[V:2] z4d4 | 
[V:3] B8 | 
[V:4] G,8 | 
[V:1] D4F4 | 
[V:2] d8 | 
[V:3] A4F4 | 
[V:4] D,8 | 
[V:1] E4D4 | 
[V:2] B8 | 
[V:3] G4D4- | 
[V:4] E,4B,,4 | 
[V:1] F6G2 | 
[V:2] A8 | 
[V:3] D4A4 | 
[V:4] D,8- | 
[V:1] _B2A4GF | 
[V:2] z4A4- | 
[V:3] F4D4 | 
[V:4] D,8 | 
[V:1] E8 | 
[V:2] A2G2F2E2 | 
[V:3] z4C4 | 
[V:4] C,4A,,4 | 
[V:1] z8 | 
[V:2] D2^F4G2 | 
[V:3] D4B,4 | 
[V:4] B,,4D,4- | 
[V:1] z8 | 
[V:2] A2^F2E4 | 
[V:3] A,8 | 
[V:4] D,4^C,4 | 
[V:1] z4A4- | 
[V:2] D8 | 
[V:3] F6G2 | 
[V:4] D,8- | 
[V:1] A4F4 | 
[V:2] z4D4 | 
[V:3] A2_B2A4- | 
[V:4] D,8 | 
[V:1] G2F2D4 | 
[V:2] D8 | 
[V:3] A2GFG4 | 
[V:4] B,,8 | 
[V:1] ^C8 | 
[V:2] E4A4- | 
[V:3] A4E4 | 
[V:4] A,,8 | 
[V:1] D4F4 | 
[V:2] A4d4 | 
[V:3] z4A4 | 
[V:4] D,8 | 
[V:1] E4D4- | 
[V:2] c4z4 | 
[V:3] A8- | 
[V:4] z4D,4 | 
[V:1] D2E2F4 | 
[V:2] d8 | 
[V:3] A8 | 
[V:4] D,8 | 
[V:1] G4A4 | 
[V:2] B2c4d2 | 
[V:3] z4A4 | 
[V:4] E,4F,4 | 
[V:1] z4D4- | 
[V:2] e2d4G2 | 
[V:3] B6c2 | 
[V:4] G,8- | 
[V:1] D2E2F4 | 
[V:2] B2G2A4 | 
[V:3] d8 | 
[V:4] G,4D,4 | 
[V:1] G4A4 | 
[V:2] G4D4 | 
[V:3] z4A4 | 
[V:4] E,4F,4 | 
[V:1] D4E4 | 
[V:2] z2d2B2G2 | 
[V:3] B6c2 | 
[V:4] G,8 | 
[V:1] F4G4 | 
[V:2] A4B4- | 
[V:3] d4G4 | 
[V:4] D,4G,4- | 
[V:1] D4F4 | 
[V:2] B2G2A4 | 
[V:3] d8 | 
[V:4] G,4D,4 | 
[V:1] G6A2- | 
[V:2] G4z4 | 
[V:3] B4c4 | 
[V:4] E,4C,4 | 
[V:1] A2F2F2E2 | 
[V:2] d8 | 
[V:3] A8 | 
[V:4] D,8 | 
[V:1] G6FE | 
[V:2] c4B4 | 
[V:3] z4G4 | 
[V:4] E,8 | 
[V:1] D8 | 
[V:2] B4d4 | 
[V:3] G8 | 
[V:4] B,,4G,,4 | 
[V:1] z4A4 | 
[V:2] c4A4 | 
[V:3] F8 | 
[V:4] A,,8 | 
[V:1] G4E4- | 
[V:2] B4c4- | 
[V:3] E4C4- | 
[V:4] z4C,4 | 
[V:1] E2C2C4 | 
[V:2] c4G4 | 
[V:3] C4E4 | 
[V:4] C,8 | 
[V:1] z4F4 | 
[V:2] B4A4 | 
[V:3] F2G2A4- | 
[V:4] D,8 | 
[V:1] E8 | 
[V:2] c2B2G2A2- | 
[V:3] A2GFE4 | 
[V:4] C,8 | 
[V:1] D4F4 | 
[V:2] A2c2B2A2 | 
[V:3] F4D4 | 
[V:4] D,8 | 
[V:1] G4A4- | 
[V:2] c3de4 | 
[V:3] z8 | 
[V:4] C,8 | 
[V:1] A2E2F4 | 
[V:2] d8 | 
[V:3] A8 | 
[V:4] D,8 | 
[V:1] G8 | 
[V:2] z4B4 | 
[V:3] G6FE | 
[V:4] E,8 | 
[V:1] z4B4 | 
[V:2] B8 | 
[V:3] D4E4- | 
[V:4] B,,4G,,4 | 
[V:1] c4A4 | 
[V:2] A4c4 | 
[V:3] E4F4 | 
[V:4] A,,8 | 
[V:1] G2F2D4 | 
[V:2] d4B4 | 
[V:3] G8 | 
[V:4] B,,8 | 
[V:1] E4C4 | 
[V:2] c4A2F2 | 
[V:3] z4A4 | 
[V:4] A,,8 | 
[V:1] E2G4F2 | 
[V:2] G3FD4- | 
[V:3] _B4G4- | 
[V:4] G,,8 | 
[V:1] D4C4 | 
[V:2] D4E4 | 
[V:3] G4A4 | 
[V:4] B,,4A,,4 | 
[V:1] D4B,4 | 
[V:2] z2D2G4 | 
[V:3] D8 | 
[V:4] B,,4G,,4 | 
[V:1] C4z2C2 | 
[V:2] F2G2A4 | 
[V:3] C2E4F2 | 
[V:4] A,,8 | 
[V:1] E2F2G4 | 
[V:2] B3cd4 | 
[V:3] G3AB2c2 | 
[V:4] G,,8- | 
[V:1] D2G3AB2- | 
[V:2] G4z4 | 
[V:3] d4G3A | 
[V:4] G,,8 | 
[V:1] Bcd2c2A2- | 
[V:2] d4e4 | 
[V:3] B4A4 | 
[V:4] z8 | 
[V:1] AGA2E4 | 
[V:2] c4B2A2 | 
[V:3] z2A2G2A2- | 
[V:4] z8 | 
[V:1] A2GAB2A2- | 
[V:2] c3BG2c2 | 
[V:3] A2E4A2 | 
[V:4] z8 | 
[V:1] AFG2A2D2 | 
[V:2] d4c2A2 | 
[V:3] GAB2A3F | 
[V:4] z8 | 
[V:1] E4F2GF | 
[V:2] B2c2d2c2- | 
[V:3] G2A2D2A2- | 
[V:4] z8 | 
[V:1] EDD4^C2 | 
[V:2] c2A4G2 | 
[V:3] A2F2E4 | 
[V:4] z8 | 
[V:1] D8 |]  
[V:2] A8 |]  
[V:3] D8 |]  
[V:4] D,8 |]  



